public/images/logos/essentiel.svg

<svg width="1033" height="120" viewBox="0 0 1033 120" fill="none" xmlns="http://www.w3.org/2000/svg">
<path d="M621.726 2.29863H650.619C654.649 9.59431 654.649 9.59431 656.283 12.7902C657.674 15.4994 659.097 18.1884 660.563 20.8607C662.39 24.2061 664.141 27.5896 665.882 30.9835C667.182 33.5149 668.515 36.0293 669.88 38.526C671.696 41.8413 673.433 45.1947 675.156 48.5595C676.456 51.0908 677.789 53.605 679.155 56.1016C680.967 59.4126 682.7 62.7613 684.423 66.1215C685.953 69.1033 687.53 72.0578 689.146 74.9943C690.269 77.0453 691.307 79.1099 692.352 81.2097C692.531 42.1487 692.531 42.1487 692.709 2.29863H715.538V117.796H687.359L680.938 105.6C679.333 102.632 679.333 102.632 677.721 99.668C676.476 97.3789 675.252 95.0783 674.025 92.7773C673.572 91.9208 673.116 91.0642 672.659 90.2077C672.549 89.9957 672.434 89.7833 672.317 89.5649C671.147 87.3604 669.966 85.1592 668.789 82.9583C668.582 82.5763 668.379 82.1946 668.168 81.8011C667.755 81.0321 667.344 80.2634 666.931 79.4944L663.817 73.6772C663.399 72.9 662.985 72.123 662.568 71.3458C655.077 57.357 655.077 57.357 654.453 56.1895L653.212 53.8749C652.242 52.0635 651.271 50.2518 650.305 48.4393C649.962 47.7976 649.62 47.156 649.274 46.5143C648.846 45.7094 648.414 44.9041 647.986 44.0989C647.79 43.7344 647.594 43.3697 647.394 42.9941C647.141 42.5167 647.141 42.5167 646.881 42.03C646.238 40.8535 645.575 39.6906 644.912 38.526L644.555 117.796H621.726V2.29863ZM0 2.29863C69.2481 2.29863 69.2481 2.29863 80.146 12.4315C86.6639 19.4008 88.3839 27.5685 88.2049 36.8713C88.1185 39.4589 87.8599 41.7965 87.0345 44.2649L86.8141 44.9289C85.7679 47.9982 84.4403 50.6962 82.3974 53.2321L81.755 54.0546C79.1797 57.1698 75.745 59.8255 72.0532 61.4819H71.3398V62.1993L72.269 62.3101C76.5458 63.186 80.3136 66.2836 82.6871 69.8662C85.9666 75.3925 86.2919 81.0429 86.487 87.3425L86.5712 89.8063C86.6136 91.0753 86.6554 92.3444 86.6957 93.6138C86.9407 103.074 86.9407 103.074 88.4613 112.393L88.6397 113.197C88.9314 114.465 89.2928 115.568 89.8881 116.72V117.796H65.6326C64.5914 113.258 64.1544 109.412 64.0399 104.823L63.9986 103.353C63.9401 101.29 63.8844 99.2265 63.8313 97.1633C63.7988 95.8943 63.7631 94.6256 63.726 93.3566C63.7064 92.6507 63.6897 91.9448 63.6729 91.2389C63.5124 85.8231 63.2538 79.885 59.212 75.8294C54.9273 72.542 50.4925 72.4355 45.3314 72.4175C44.7543 72.4122 44.1772 72.4061 43.6 72.3996C41.4769 72.3788 39.3535 72.3673 37.2304 72.3544L22.8287 72.2425V117.796H0V2.29863ZM22.8287 22.0264V52.8734L35.7145 52.9405L39.7527 52.9703C40.9683 52.9739 40.9683 52.9739 42.1843 52.976C42.7175 52.9778 43.2505 52.9814 43.7834 52.9871C50.2393 53.0506 56.8293 52.1758 61.7089 47.4931C64.7366 44.2241 65.7453 40.4288 65.6326 36.0152C65.1379 31.5362 63.5901 28.0713 60.1234 25.1663C56.7529 22.8395 52.7415 21.9048 48.7047 21.945H47.8355C46.9195 21.945 46.0035 21.9507 45.0875 21.9564L43.3764 21.9586C41.2758 21.9622 39.1752 21.9722 37.0746 21.9816L22.8287 22.0264ZM497.595 5.16812C497.816 5.27106 498.037 5.37401 498.262 5.48018C506.138 9.21231 511.677 15.4696 514.963 23.5845C516.5 27.8902 517.035 32.1568 517.57 36.7325H493.671L492.601 30.9935C490.7 26.4013 488.613 23.5989 484.001 21.6774C480.973 20.5942 477.969 20.0274 474.766 19.8743L473.928 19.8294C468.667 19.6881 462.021 20.4119 457.873 23.9654C455.026 26.7478 453.956 29.1413 453.725 33.1622C453.714 36.5116 454.919 38.9758 457.242 41.3632C460.32 44.0203 464.315 45.1764 468.174 46.1915C468.606 46.3059 468.606 46.3059 469.052 46.4228C473.172 47.4856 477.352 48.2901 481.526 49.1248C491.795 51.1865 502.699 53.6198 510.793 60.7645C511.06 60.9987 511.328 61.2333 511.603 61.4747C516.407 65.9863 519.09 72.3415 519.396 78.9098C519.735 88.9774 518.052 98.5536 511.149 106.318C510.889 106.612 510.632 106.907 510.365 107.21C506.502 111.346 501.765 114.025 496.525 116.002C496.304 116.087 496.079 116.171 495.851 116.258C488.585 118.939 480.737 119.672 473.05 119.679L472.266 119.68C459.521 119.66 446.633 116.715 437.313 107.394C430.728 100.366 427.682 90.764 427.682 81.2097H451.581L452.294 86.59C453.603 91.0097 455.693 94.5406 459.753 96.8699C464.183 99.0733 468.688 99.6992 473.607 99.6594L475.019 99.653C478.668 99.5938 481.989 99.1698 485.467 98.0679C485.82 97.9603 486.17 97.8524 486.534 97.7415C489.969 96.531 493.097 94.0133 494.83 90.778C496.147 87.6947 496.418 84.0913 495.508 80.851C493.871 77.1866 490.832 75.3792 487.233 73.9394C481.262 71.6837 474.805 70.8329 468.56 69.7148C463.901 68.8766 459.293 67.9917 454.741 66.6646C454.409 66.567 454.074 66.4698 453.728 66.3694C445.121 63.7434 437.948 59.1433 433.314 51.2285C432.262 49.2112 431.524 47.1656 430.892 44.9823L430.546 43.7969C428.424 35.0851 429.512 25.4407 434.103 17.7221C438.693 10.6697 445.513 6.08492 453.364 3.37469C453.742 3.23982 454.124 3.1046 454.513 2.96579C467.743 -1.45323 484.954 -0.860322 497.595 5.16812ZM410.204 10.1897C410.464 10.4021 410.728 10.6141 410.999 10.8329C417.466 16.2519 420.552 24.3073 421.882 32.4617C422.007 33.8799 421.975 35.3085 421.975 36.7325H398.433L397.006 30.2762C395.201 25.93 392.854 23.4805 388.534 21.5992C381.39 18.9539 372.647 19.1687 365.616 22.026C362.438 23.6631 359.995 26.1394 358.839 29.5584C357.894 32.7619 358.432 35.947 359.909 38.8846C364.008 45.2165 373.1 46.397 379.884 47.8518C381.604 48.2087 383.323 48.5523 385.042 48.8981C397.637 51.4297 411.242 54.2673 419.521 65.1193C424.707 73.0402 425.042 82.7603 423.237 91.8268C421.272 100.554 416.2 107.418 408.838 112.377C395.479 120.621 376.51 121.593 361.546 118.076C355.671 116.579 349.967 114.199 345.284 110.263L344.382 109.53C336.821 103.089 333.477 94.117 332.443 84.4378V81.2097H356.342L357.056 86.9486C358.261 91.2156 360.594 94.6486 364.489 96.8462C368.898 99.0385 373.335 99.6942 378.236 99.6372L379.602 99.6268C385.977 99.5238 392.419 98.4295 397.273 93.8996C400.02 90.9157 400.708 87.5085 400.673 83.558C400.534 81.7954 400.077 80.5425 399.146 79.0575C398.964 78.7344 398.964 78.7344 398.775 78.4047C397.669 76.8039 396.111 75.9499 394.42 75.0671C394.209 74.9549 393.999 74.843 393.785 74.7271C388.392 72.0868 382.117 71.3085 376.275 70.292C371.752 69.5061 367.264 68.6754 362.813 67.5627C362.47 67.4781 362.131 67.3931 361.778 67.3059C352.317 64.8722 343.879 60.6619 338.507 52.156C334.423 44.7316 332.991 34.5815 335.186 26.2858C335.44 25.4572 335.714 24.634 336.01 23.8198L336.414 22.6613C339.675 14.0958 346.466 8.43647 354.583 4.75312C371.013 -2.45468 396.071 -2.08954 410.204 10.1897ZM100.232 2.29863H179.776V23.1024H123.418V49.2866H175.853V70.0904H123.418V97.3506H181.203V117.796H100.232V2.29863ZM527.914 2.29863H607.458V23.1024H550.743V49.2866H603.534V70.0904H550.743V97.3506H608.885V117.796H527.914V2.29863ZM860.358 2.29863H939.545V23.1024H883.186V49.2866H935.621V70.0904H883.186V97.3506H941.328V117.796H860.358V2.29863ZM724.099 2.29863H814.344V23.1024H780.457V117.796H757.628V23.1024H724.099V2.29863ZM953.813 2.29863H976.641V97.3506H1033V117.796H953.813V2.29863ZM822.904 2.29863H845.733V117.796H822.904V2.29863ZM193.331 58.9711H325.309V78.3402H193.331V58.9711Z" fill="black"/>
</svg>

<svg xmlns="http://www.w3.org/2000/svg" width="1033" height="120" fill="none"><path fill="#000" d="M621.726 2.299h28.893c4.03 7.295 4.03 7.295 5.664 10.491a332.966 332.966 0 0 0 4.28 8.07c1.827 3.346 3.578 6.73 5.319 10.123 1.3 2.532 2.633 5.046 3.998 7.543 1.816 3.315 3.553 6.669 5.276 10.033 1.3 2.532 2.633 5.046 3.999 7.543 1.812 3.31 3.545 6.66 5.268 10.02a346.496 346.496 0 0 0 4.723 8.872c1.123 2.051 2.161 4.116 3.206 6.216.179-39.061.179-39.061.357-78.911h22.829v115.497h-28.179l-6.421-12.196c-1.605-2.968-1.605-2.968-3.217-5.932-1.245-2.29-2.469-4.59-3.696-6.89-.453-.857-.909-1.714-1.366-2.57-.11-.212-.225-.425-.342-.643-1.17-2.205-2.351-4.406-3.528-6.607-.207-.382-.41-.763-.621-1.157l-1.237-2.307-3.114-5.817c-.418-.777-.832-1.554-1.249-2.331-7.491-13.989-7.491-13.989-8.115-15.157l-1.241-2.314c-.97-1.812-1.941-3.623-2.907-5.436-.343-.641-.685-1.283-1.031-1.925-.428-.805-.86-1.61-1.288-2.415a305 305 0 0 1-.592-1.105l-.513-.964c-.643-1.177-1.306-2.34-1.969-3.504l-.357 79.27h-22.829V2.299ZM0 2.299c69.248 0 69.248 0 80.146 10.133 6.518 6.969 8.238 15.136 8.059 24.44-.087 2.587-.345 4.925-1.17 7.393l-.22.664c-1.047 3.07-2.375 5.767-4.418 8.303l-.642.823c-2.575 3.115-6.01 5.77-9.702 7.427h-.713v.717l.929.111c4.277.876 8.045 3.974 10.418 7.556 3.28 5.526 3.605 11.177 3.8 17.477l.084 2.463c.043 1.27.084 2.538.125 3.808.245 9.46.245 9.46 1.765 18.779l.179.804c.291 1.268.653 2.371 1.248 3.523v1.076H65.633c-1.042-4.538-1.479-8.384-1.593-12.973l-.041-1.47c-.059-2.063-.115-4.126-.168-6.19-.032-1.269-.068-2.537-.105-3.806-.02-.706-.036-1.412-.053-2.118-.16-5.416-.42-11.354-4.461-15.41-4.285-3.287-8.72-3.393-13.88-3.411A833.56 833.56 0 0 1 43.6 72.4c-2.123-.021-4.247-.033-6.37-.046l-14.401-.111v45.553H0V2.299Zm22.829 19.727v30.847l12.886.068 4.038.03 2.431.005c.534.002 1.067.005 1.6.011 6.455.064 13.045-.811 17.925-5.494 3.028-3.269 4.036-7.064 3.924-11.478-.495-4.479-2.043-7.944-5.51-10.849-3.37-2.326-7.381-3.261-11.418-3.221h-.87c-.916 0-1.831.006-2.748.011l-1.71.003c-2.101.003-4.202.013-6.302.023l-14.246.044ZM497.595 5.168l.667.312c7.876 3.732 13.415 9.99 16.701 18.104 1.537 4.306 2.072 8.573 2.607 13.149h-23.899l-1.07-5.74c-1.901-4.592-3.988-7.394-8.6-9.316-3.028-1.083-6.032-1.65-9.235-1.803l-.838-.045c-5.261-.14-11.907.583-16.055 4.136-2.847 2.783-3.917 5.176-4.148 9.197-.011 3.35 1.194 5.814 3.517 8.201 3.078 2.657 7.073 3.813 10.932 4.828l.878.232c4.12 1.063 8.3 1.867 12.474 2.702 10.269 2.062 21.173 4.495 29.267 11.64l.81.71c4.804 4.511 7.487 10.866 7.793 17.435.339 10.067-1.344 19.644-8.247 27.408-.26.294-.517.589-.784.892-3.863 4.136-8.6 6.815-13.84 8.792l-.674.256c-7.266 2.681-15.114 3.414-22.801 3.421l-.784.001c-12.745-.02-25.633-2.965-34.953-12.286-6.585-7.028-9.631-16.63-9.631-26.184h23.899l.713 5.38c1.309 4.42 3.399 7.95 7.459 10.28 4.43 2.203 8.935 2.83 13.854 2.79l1.412-.007c3.649-.06 6.97-.483 10.448-1.585.353-.108.703-.216 1.067-.326 3.435-1.211 6.563-3.729 8.296-6.964 1.317-3.083 1.588-6.687.678-9.927-1.637-3.664-4.676-5.472-8.275-6.912-5.971-2.255-12.428-3.106-18.673-4.224-4.659-.838-9.267-1.723-13.819-3.05l-1.013-.296c-8.607-2.626-15.78-7.226-20.414-15.14-1.052-2.018-1.79-4.063-2.422-6.247l-.346-1.185c-2.122-8.712-1.034-18.356 3.557-26.075 4.59-7.052 11.41-11.637 19.261-14.347.378-.135.76-.27 1.149-.41 13.23-4.418 30.441-3.825 43.082 2.203Zm-87.391 5.022c.26.212.524.424.795.643 6.467 5.419 9.553 13.474 10.883 21.629.125 1.418.093 2.846.093 4.27h-23.542l-1.427-6.456c-1.805-4.346-4.152-6.796-8.472-8.677-7.144-2.645-15.887-2.43-22.918.427-3.178 1.637-5.621 4.113-6.777 7.532-.945 3.204-.407 6.389 1.07 9.327 4.099 6.332 13.191 7.512 19.975 8.967 1.72.357 3.439.7 5.158 1.046 12.595 2.532 26.2 5.37 34.479 16.221 5.186 7.921 5.521 17.641 3.716 26.708-1.965 8.727-7.037 15.591-14.399 20.55-13.359 8.244-32.328 9.216-47.292 5.699-5.875-1.497-11.579-3.877-16.262-7.813l-.902-.733c-7.561-6.441-10.905-15.413-11.939-25.092V81.21h23.899l.714 5.739c1.205 4.267 3.538 7.7 7.433 9.897 4.409 2.192 8.846 2.848 13.747 2.791l1.366-.01c6.375-.103 12.817-1.197 17.671-5.727 2.747-2.984 3.435-6.392 3.4-10.342-.139-1.763-.596-3.016-1.527-4.5-.182-.324-.182-.324-.371-.653-1.106-1.601-2.664-2.455-4.355-3.338a93.695 93.695 0 0 1-.635-.34c-5.393-2.64-11.668-3.419-17.51-4.435-4.523-.786-9.011-1.617-13.462-2.73l-1.035-.256c-9.461-2.434-17.899-6.644-23.271-15.15-4.084-7.424-5.516-17.575-3.321-25.87.254-.829.528-1.652.824-2.466l.404-1.159c3.261-8.565 10.052-14.225 18.169-17.908 16.43-7.208 41.488-6.843 55.621 5.437ZM100.232 2.299h79.544v20.803h-56.358v26.185h52.435V70.09h-52.435v27.26h57.785v20.446h-80.971V2.299Zm427.682 0h79.544v20.803h-56.715v26.185h52.791V70.09h-52.791v27.26h58.142v20.446h-80.971V2.299Zm332.444 0h79.187v20.803h-56.359v26.185h52.435V70.09h-52.435v27.26h58.142v20.446h-80.97V2.299Zm-136.259 0h90.245v20.803h-33.887v94.694h-22.829V23.102h-33.529V2.3Zm229.714 0h22.828V97.35H1033v20.445h-79.187V2.299Zm-130.909 0h22.829v115.497h-22.829V2.299ZM193.331 58.97h131.978v19.37H193.331V58.97Z"/></svg>
